common/src/main/resources/files/plugins/datagrip/apacheDerbyFileType.svg

<!--
  - The MIT License (MIT)
  -
  - Copyright (c) 2015-2024 Elior "Mallowigi" Boukhobza
  -
  - Permission is hereby granted, free of charge, to any person obtaining a copy
  - of this software and associated documentation files (the "Software"), to deal
  - in the Software without restriction, including without limitation the rights
  - to use, copy, modify, merge, publish, distribute, sublicense, and/or sell
  - copies of the Software, and to permit persons to whom the Software is
  - furnished to do so, subject to the following conditions:
  -
  - The above copyright notice and this permission notice shall be included in all
  - copies or substantial portions of the Software.
  -
  - THE SOFTWARE IS PROVIDED "AS IS", WITHOUT WARRANTY OF ANY KIND, EXPRESS OR
  - IMPLIED, INCLUDING BUT NOT LIMITED TO THE WARRANTIES OF MERCHANTABILITY,
  - FITNESS FOR A PARTICULAR PURPOSE AND NONINFRINGEMENT. IN NO EVENT SHALL THE
  - AUTHORS OR COPYRIGHT HOLDERS BE LIABLE FOR ANY CLAIM, DAMAGES OR OTHER
  - LIABILITY, WHETHER IN AN ACTION OF CONTRACT, TORT OR OTHERWISE, ARISING FROM,
  - OUT OF OR IN CONNECTION WITH THE SOFTWARE OR THE USE OR OTHER DEALINGS IN THE
  - SOFTWARE.
  -->
<svg data-big="true" width="16px" height="16px" viewBox="0 0 16 16" fill="#A1887F" xmlns="http://www.w3.org/2000/svg">
  <path
    d="M7.31798 9.2029C13.0715 4.62004 14.9715 6.78269 14.9715 6.78269C15.0111 6.89014 14.944 7.01316 14.944 7.01316L14.9415 7.01152C14.829 7.36906 13.9563 7.84928 12.6007 7.90295C11.4409 7.94887 10.4374 8.06899 9.79181 8.16321C8.91962 8.7032 8.09559 9.3026 7.42521 9.80289C7.38039 9.83633 7.28293 9.92151 7.14459 10.0424C6.46493 10.6364 4.79845 12.0929 3.53779 12.5145C2.55959 12.8417 1.73892 12.9044 1.30907 12.3443C1.18852 12.2083 1.09374 12.023 1.05387 11.7694C0.781558 10.0384 3.16872 9.00071 3.16872 9.00071C3.16872 9.00071 3.33715 9.97586 3.45467 10.1319C4.84462 10.0357 6.62949 9.44629 7.31798 9.2029Z"
  />
  <path
    d="M3.17373 8.85622C3.17373 8.85622 2.24809 5.43502 4.52149 4.13296C5.2806 3.69814 6.75583 3.22368 7.48972 3.12636C8.2237 3.02899 9.95251 2.72128 10.8415 4.18745C11.1664 4.72315 11.589 5.67103 11.6782 6.01419C10.7495 7.0269 4.20315 8.79097 3.17373 8.85622Z"
  />
</svg>

<svg xmlns="http://www.w3.org/2000/svg" width="16" height="16" fill="#A1887F" data-big="true"><path d="M7.318 9.203c5.754-4.583 7.654-2.42 7.654-2.42.04.107-.028.23-.028.23l-.003-.001c-.112.357-.985.837-2.34.891-1.16.046-2.164.166-2.81.26-.871.54-1.695 1.14-2.366 1.64-.045.033-.142.119-.28.24-.68.593-2.347 2.05-3.607 2.472-.978.327-1.8.39-2.229-.17a1.1 1.1 0 0 1-.255-.576c-.272-1.73 2.115-2.768 2.115-2.768s.168.975.286 1.13c1.39-.095 3.174-.685 3.863-.928"/><path d="M3.174 8.856S2.248 5.435 4.52 4.133c.76-.435 2.235-.91 2.969-1.007s2.463-.405 3.351 1.061c.325.536.748 1.484.837 1.827-.929 1.013-7.475 2.777-8.504 2.842"/></svg>
